germany/municipalities/07135043.svg

<?xml version="1.0" encoding="UTF-8" standalone="no"?>
<!-- Created with Inkscape (http://www.inkscape.org/) -->

<svg
   xmlns:dc="http://purl.org/dc/elements/1.1/"
   xmlns:cc="http://creativecommons.org/ns#"
   xmlns:rdf="http://www.w3.org/1999/02/22-rdf-syntax-ns#"
   xmlns:svg="http://www.w3.org/2000/svg"
   xmlns="http://www.w3.org/2000/svg"
   xmlns:sodipodi="http://sodipodi.sourceforge.net/DTD/sodipodi-0.dtd"
   xmlns:inkscape="http://www.inkscape.org/namespaces/inkscape"
   width="165.33842mm"
   height="209.34358mm"
   viewBox="0 0 165.33842 209.34358"
   version="1.1"
   id="svg6109"
   inkscape:version="0.92.4 (5da689c313, 2019-01-14)"
   sodipodi:docname="DEU Kaifenheim COA.svg">
  <defs
     id="defs6103">
    <inkscape:path-effect
       effect="spiro"
       id="path-effect1086"
       is_visible="true" />
  </defs>
  <sodipodi:namedview
     id="base"
     pagecolor="#ffffff"
     bordercolor="#666666"
     borderopacity="1.0"
     inkscape:pageopacity="0.0"
     inkscape:pageshadow="2"
     inkscape:zoom="0.69260142"
     inkscape:cx="312.45058"
     inkscape:cy="395.6099"
     inkscape:document-units="mm"
     inkscape:current-layer="layer1"
     showgrid="false"
     inkscape:window-width="1366"
     inkscape:window-height="745"
     inkscape:window-x="-8"
     inkscape:window-y="-8"
     inkscape:window-maximized="1"
     fit-margin-top="0"
     fit-margin-left="0"
     fit-margin-right="0"
     fit-margin-bottom="0"
     inkscape:snap-midpoints="true"
     inkscape:snap-smooth-nodes="true"
     inkscape:snap-nodes="true"
     inkscape:object-paths="false" />
  <metadata
     id="metadata6106">
    <rdf:RDF>
      <cc:Work
         rdf:about="">
        <dc:format>image/svg+xml</dc:format>
        <dc:type
           rdf:resource="http://purl.org/dc/dcmitype/StillImage" />
        <dc:title></dc:title>
      </cc:Work>
    </rdf:RDF>
  </metadata>
  <g
     inkscape:label="Ebene 1"
     inkscape:groupmode="layer"
     id="layer1"
     transform="translate(-5.2398602,-7.0309131)">
    <path
       style="fill:#ff0000;fill-rule:evenodd;stroke:#000000;stroke-width:3.10444427;stroke-opacity:1;fill-opacity:1"
       inkscape:connector-curvature="0"
       d="M 169.01517,8.5831352 168.19245,136.74714 C 166.39716,186.20653 130.92586,214.7946 87.909041,214.82228 44.930978,214.76158 9.4464114,186.15945 7.6256912,136.74714 L 6.8029812,8.5831352 H 87.907112 Z"
       id="path10563-0-6-7-3"
       sodipodi:nodetypes="ccccccc" />
    <path
       style="fill:#ffffff;fill-opacity:1;stroke:#000000;stroke-width:5.00000048;stroke-linecap:round;stroke-linejoin:round;stroke-miterlimit:4;stroke-dasharray:none;stroke-opacity:1;paint-order:markers fill stroke"
       d="M 314.68555 38.011719 C 303.20186 38.011598 293.89246 47.320997 293.89258 58.804688 C 293.89976 59.298252 293.92469 59.7914 293.9668 60.283203 C 293.52471 60.253345 293.08176 60.237802 292.63867 60.236328 C 281.15574 60.237284 271.84754 69.54637 271.84766 81.029297 C 271.84754 92.512227 281.15574 101.82131 292.63867 101.82227 C 293.42818 101.81357 294.21658 101.76026 295 101.66211 L 295 130.52344 L 266.77734 130.52344 C 266.8755 129.74001 266.929 128.95162 266.9375 128.16211 C 266.93655 116.67918 257.62745 107.37098 246.14453 107.37109 C 234.66161 107.37097 225.35251 116.67918 225.35156 128.16211 C 225.35304 128.6052 225.37047 129.04815 225.39844 129.49023 C 224.90665 129.44798 224.41349 129.42316 223.91992 129.41602 C 212.43624 129.41588 203.12684 138.72531 203.12695 150.20898 C 203.12684 161.69269 212.43624 171.00209 223.91992 171.00195 C 224.41912 171.00105 224.91818 170.98231 225.41602 170.94531 C 225.382 171.38073 225.35912 171.81714 225.35156 172.25391 C 225.35141 183.7376 234.66085 193.047 246.14453 193.04688 C 257.62821 193.04699 266.93763 183.73759 266.9375 172.25391 C 266.93334 171.46465 266.88463 170.67627 266.79102 169.89258 L 295 169.89258 L 295 237.75 A 137.34476 88.333757 0 0 0 198.875 277.74414 L 169.36133 277.74414 L 131.17773 277.74414 L 131.17773 315.92773 L 131.17773 650.45508 L 131.17773 688.63867 L 169.36133 688.63867 L 498.19141 688.63867 L 498.19141 650.45508 L 498.19141 277.74414 L 430.4668 277.74414 A 137.34476 88.333757 0 0 0 334.36914 237.75 L 334.36914 169.89258 L 362.58008 169.89258 C 362.48635 170.67627 362.43775 171.46465 362.43359 172.25391 C 362.43348 183.7376 371.74288 193.047 383.22656 193.04688 C 394.71024 193.047 404.01964 183.7376 404.01953 172.25391 C 404.01197 171.81714 403.98947 171.38073 403.95508 170.94531 C 404.45292 170.98197 404.95193 171.00105 405.45117 171.00195 C 416.93485 171.00209 426.24425 161.69269 426.24414 150.20898 C 426.24425 138.72531 416.93485 129.41588 405.45117 129.41602 C 404.9576 129.4232 404.46445 129.44779 403.97266 129.49023 C 404.00289 129.04815 404.01802 128.6052 404.01953 128.16211 C 404.01855 116.67918 394.70952 107.37097 383.22656 107.37109 C 371.74364 107.37097 362.43454 116.67918 362.43359 128.16211 C 362.44115 128.95162 362.49548 129.74001 362.59375 130.52344 L 334.36914 130.52344 L 334.36914 101.67578 C 335.15282 101.7694 335.94122 101.81826 336.73047 101.82227 C 348.21416 101.82239 357.52357 92.512991 357.52344 81.029297 C 357.52355 69.545607 348.21416 60.236207 336.73047 60.236328 C 336.29371 60.243887 335.85728 60.265443 335.42188 60.300781 C 335.45854 59.802923 335.47757 59.303903 335.47852 58.804688 C 335.47864 47.320997 326.16924 38.011598 314.68555 38.011719 z M 314.68555 50.896484 C 319.05315 50.896428 322.59381 54.437084 322.59375 58.804688 C 322.59381 63.172291 319.05315 66.712947 314.68555 66.712891 C 310.31795 66.712947 306.77728 63.172291 306.77734 58.804688 C 306.77728 54.437084 310.31795 50.896428 314.68555 50.896484 z M 292.63867 73.121094 C 297.00627 73.121033 300.54693 76.661694 300.54688 81.029297 C 300.54693 85.3969 297.00627 88.937557 292.63867 88.9375 C 288.27106 88.937564 284.73041 85.396904 284.73047 81.029297 C 284.73041 76.66169 288.27106 73.121029 292.63867 73.121094 z M 336.73047 73.121094 C 341.09808 73.121029 344.63873 76.66169 344.63867 81.029297 C 344.63873 85.396904 341.09808 88.937564 336.73047 88.9375 C 332.36287 88.937557 328.82221 85.3969 328.82227 81.029297 C 328.82221 76.661694 332.36287 73.121033 336.73047 73.121094 z M 246.14453 120.25391 C 250.51215 120.25385 254.05281 123.79451 254.05273 128.16211 C 254.05281 132.52971 250.51215 136.07037 246.14453 136.07031 C 241.77695 136.07038 238.23629 132.52972 238.23633 128.16211 C 238.23629 123.7945 241.77695 120.25384 246.14453 120.25391 z M 383.22656 120.25391 C 387.59415 120.25385 391.1348 123.79451 391.13477 128.16211 C 391.1348 132.52971 387.59415 136.07037 383.22656 136.07031 C 378.85894 136.07038 375.31832 132.52972 375.31836 128.16211 C 375.31832 123.7945 378.85894 120.25384 383.22656 120.25391 z M 223.91992 142.30078 C 228.28754 142.30072 231.82816 145.84139 231.82812 150.20898 C 231.82816 154.5766 228.28754 158.11725 223.91992 158.11719 C 219.5523 158.11725 216.01164 154.5766 216.01172 150.20898 C 216.01168 145.84139 219.5523 142.30072 223.91992 142.30078 z M 405.45117 142.30078 C 409.81879 142.30072 413.35941 145.84139 413.35938 150.20898 C 413.35941 154.5766 409.81879 158.11725 405.45117 158.11719 C 401.08355 158.11725 397.54289 154.5766 397.54297 150.20898 C 397.54293 145.84139 401.08355 142.30072 405.45117 142.30078 z M 246.14453 164.3457 C 250.51215 164.34565 254.05281 167.8863 254.05273 172.25391 C 254.05281 176.62151 250.51215 180.16217 246.14453 180.16211 C 241.77695 180.16217 238.23629 176.62151 238.23633 172.25391 C 238.23629 167.8863 241.77695 164.34564 246.14453 164.3457 z M 383.22656 164.3457 C 387.59415 164.34565 391.1348 167.8863 391.13477 172.25391 C 391.1348 176.62151 387.59415 180.16217 383.22656 180.16211 C 378.85894 180.16217 375.31832 176.62151 375.31836 172.25391 C 375.31828 167.8863 378.85894 164.34564 383.22656 164.3457 z M 314.68359 268.62695 A 127.94149 109.41989 0 0 1 314.68555 268.62695 A 127.94149 109.41989 0 0 1 419.83594 315.92773 L 451.27344 315.92773 L 460.00781 315.92773 L 460.00781 650.45508 L 169.36133 650.45508 L 169.36133 315.92773 L 178.22461 315.92773 L 209.38867 315.92773 A 127.94149 109.41989 0 0 1 288.58789 271.05469 A 127.94149 109.41989 0 0 1 299.5293 269.53516 A 127.94149 109.41989 0 0 1 302.35547 269.24023 A 127.94149 109.41989 0 0 1 313.27344 268.66992 A 127.94149 109.41989 0 0 1 314.68359 268.62695 z "
       transform="matrix(0.26458333,0,0,0.26458333,5.2398602,7.0309131)"
       id="rect851-7-1" />
    <path
       inkscape:connector-curvature="0"
       style="fill:#ffffff;fill-opacity:1;stroke:#000000;stroke-width:0.79399997;stroke-linecap:round;stroke-linejoin:round;stroke-miterlimit:4;stroke-dasharray:none;stroke-opacity:1;paint-order:markers fill stroke"
       d="m 87.909072,104.16142 c -4.22044,0 -7.61814,3.3977 -7.61814,7.61814 v 35.20818 c 0,4.22044 3.3977,7.61814 7.61814,7.61814 2.79704,0 5.231421,-1.4928 6.556187,-3.72793 l -3.464388,-2.56264 h 4.409551 c 0.01254,-0.0718 0.02514,-0.14348 0.03566,-0.21601 l -4.445209,-3.28765 h 4.526341 v -0.15606 l -4.526341,-3.3476 h 4.526341 v -0.15607 l -4.526341,-3.34811 h 4.526341 v -0.15555 l -4.526341,-3.34811 h 4.526341 v -0.15607 l -4.526341,-3.3476 h 4.526341 v -0.15606 l -4.526341,-3.3476 h 4.526341 v -0.15606 l -4.526341,-3.34812 h 4.526341 v -0.15554 l -4.526341,-3.34812 h 4.526341 v -8.50542 c 0,-4.22044 -3.397703,-7.61814 -7.61814,-7.61814 z"
       id="rect839" />
    <path
       style="fill:#ffffff;fill-opacity:1;stroke:#000000;stroke-width:3;stroke-linecap:round;stroke-linejoin:round;stroke-miterlimit:4;stroke-dasharray:none;stroke-opacity:1;paint-order:markers fill stroke"
       d="M 311.66602 533.17188 A 26.467261 26.467261 0 0 0 285.19727 559.64062 A 26.467261 26.467261 0 0 0 300.48242 583.5957 L 300.48242 632.25391 L 300.48242 632.25586 C 300.7245 635.02527 302.17047 637.61143 304.01367 639.61133 C 305.41665 641.13361 307.44317 642.00202 309.375 642.74609 C 311.31837 643.49463 313.4188 643.8106 315.49023 644.02539 C 318.5474 644.34249 321.69755 644.63474 324.71094 644.0293 C 327.70004 643.42896 330.82026 642.46486 333.14648 640.49414 C 335.53502 638.47062 337.42276 635.65062 338.15039 632.54688 C 337.23217 632.63985 333.98679 632.84235 331.96094 632.45117 C 329.87356 632.04805 327.69671 631.45664 326.00586 630.16797 C 324.77892 629.23284 323.85838 627.86286 323.26367 626.43945 C 322.92249 625.62285 322.84766 623.81836 322.84766 623.81836 L 322.84766 583.5957 A 26.467261 26.467261 0 0 0 338.13281 559.64062 A 26.467261 26.467261 0 0 0 311.66602 533.17188 z "
       transform="matrix(0.26458333,0,0,0.26458333,5.2398602,7.0309131)"
       id="path1080" />
    <path
       inkscape:connector-curvature="0"
       style="fill:#ffffff;fill-opacity:1;stroke:#000000;stroke-width:0.79374999;stroke-linecap:round;stroke-linejoin:round;stroke-miterlimit:4;stroke-dasharray:none;stroke-opacity:1;paint-order:markers fill stroke"
       d="m 78.905486,148.31738 -1.034044,1.69343 6.622851,4.04472 a 3.375742,3.375742 0 0 0 -0.168981,1.04696 3.375742,3.375742 0 0 0 3.376019,3.37551 3.375742,3.375742 0 0 0 2.395204,-1.00046 l 7.43417,4.54029 c 0,0 2.08601,0.95932 3.160535,0.7984 0.90564,-0.13561 1.89596,-0.62828 2.34972,-1.42368 0.26466,-0.46384 0.0171,-1.60197 0.0171,-1.60197 0,0 -1.04948,0.88134 -1.69447,0.99891 -0.94795,0.17272 -2.84789,-0.49558 -2.84789,-0.49558 l -7.497218,-4.57853 a 3.375742,3.375742 0 0 0 0.05839,-0.61289 3.375742,3.375742 0 0 0 -3.375504,-3.37602 3.375742,3.375742 0 0 0 -2.06034,0.70435 z"
       id="path1080-7" />
    <circle
       style="fill:#ffffff;fill-opacity:1;stroke:#000000;stroke-width:0.79374999;stroke-linecap:round;stroke-linejoin:round;stroke-miterlimit:4;stroke-dasharray:none;stroke-opacity:1;paint-order:markers fill stroke"
       id="path1080-9"
       cx="87.908859"
       cy="101.38206"
       r="2.3701558" />
    <path
       inkscape:connector-curvature="0"
       style="fill:#ffffff;fill-opacity:1;stroke:#000000;stroke-width:0.79399997;stroke-linecap:round;stroke-linejoin:round;stroke-miterlimit:4;stroke-dasharray:none;stroke-opacity:1;paint-order:markers fill stroke"
       d="m 87.909072,89.077066 c -7.625972,0 -13.808022,4.502346 -13.807943,10.056236 v 49.184078 h 2.95434 V 99.133302 c 0.896144,-4.120748 5.574549,-7.133135 10.853603,-7.137551 5.283345,3.4e-5 9.956725,3.013451 10.853599,7.137551 v 49.184078 h 2.954339 V 99.133302 c 8e-5,-5.55389 -6.181967,-10.056236 -13.807938,-10.056236 z"
       id="rect910" />
    <rect
       style="fill:#ffffff;fill-opacity:1;stroke:#000000;stroke-width:0.79399997;stroke-linecap:round;stroke-linejoin:round;stroke-miterlimit:4;stroke-dasharray:none;stroke-opacity:1;paint-order:markers fill stroke"
       id="rect951"
       width="31.920305"
       height="3.3744321"
       x="71.948921"
       y="113.04391"
       ry="1.687216"
       rx="1.687216" />
    <rect
       style="fill:#ffffff;fill-opacity:1;stroke:#000000;stroke-width:0.79399997;stroke-linecap:round;stroke-linejoin:round;stroke-miterlimit:4;stroke-dasharray:none;stroke-opacity:1;paint-order:markers fill stroke"
       id="rect951-3"
       width="31.920305"
       height="3.3744321"
       x="71.948921"
       y="144.72511"
       ry="1.687216"
       rx="1.687216" />
    <rect
       style="fill:#ffffff;fill-opacity:1;stroke:#000000;stroke-width:0.79399997;stroke-linecap:round;stroke-linejoin:round;stroke-miterlimit:4;stroke-dasharray:none;stroke-opacity:1;paint-order:markers fill stroke"
       id="rect968"
       width="11.77671"
       height="2.9883621"
       x="82.020721"
       y="113.23694" />
    <path
       inkscape:connector-curvature="0"
       style="fill:#ffffff;fill-opacity:1;stroke:#000000;stroke-width:0.79399997;stroke-linecap:round;stroke-linejoin:round;stroke-miterlimit:4;stroke-dasharray:none;stroke-opacity:1;paint-order:markers fill stroke"
       d="m 87.909072,80.849662 a 4.1136797,4.1136797 0 0 0 -4.113446,4.113961 4.1136797,4.1136797 0 0 0 4.113446,4.113443 4.1136797,4.1136797 0 0 0 4.113442,-4.113443 4.1136797,4.1136797 0 0 0 -4.113442,-4.113961 z m 0,1.589051 a 2.5248978,2.5248978 0 0 1 2.52491,2.52491 2.5248978,2.5248978 0 0 1 -2.52491,2.524911 2.5248978,2.5248978 0 0 1 -2.524911,-2.524911 2.5248978,2.5248978 0 0 1 2.524911,-2.52491 z"
       id="path970" />
  </g>
</svg>

<svg xmlns="http://www.w3.org/2000/svg" width="624.901" height="791.22" viewBox="0 0 165.338 209.344"><g transform="translate(-5.24 -7.03)"><path style="fill:red;fill-rule:evenodd;stroke:#000;stroke-width:3.10444427;stroke-opacity:1;fill-opacity:1" d="m169.015 8.583-.823 128.164c-1.795 49.46-37.266 78.048-80.283 78.075-42.978-.06-78.463-28.663-80.283-78.075L6.803 8.583h81.104z"/><path style="fill:#fff;fill-opacity:1;stroke:#000;stroke-width:5.00000048;stroke-linecap:round;stroke-linejoin:round;stroke-miterlimit:4;stroke-dasharray:none;stroke-opacity:1;paint-order:markers fill stroke" d="M314.686 38.012c-11.484 0-20.794 9.309-20.793 20.793.007.493.032.986.074 1.478-.442-.03-.885-.045-1.328-.047-11.483.001-20.791 9.31-20.791 20.793 0 11.483 9.308 20.792 20.79 20.793.79-.008 1.579-.062 2.362-.16v28.861h-28.223c.099-.783.152-1.571.16-2.36 0-11.484-9.31-20.792-20.792-20.792-11.483 0-20.792 9.308-20.793 20.791.001.443.018.886.046 1.328a20.786 20.786 0 0 0-1.478-.074c-11.484 0-20.793 9.31-20.793 20.793 0 11.484 9.31 20.793 20.793 20.793.5-.001.998-.02 1.496-.057-.034.436-.057.872-.064 1.309 0 11.484 9.309 20.793 20.793 20.793 11.483 0 20.793-9.31 20.792-20.793a20.835 20.835 0 0 0-.146-2.361H295v67.857a137.345 88.334 0 0 0-96.125 39.994h-67.697V688.64H498.19V277.745h-67.724a137.345 88.334 0 0 0-96.098-39.995v-67.857h28.211a20.807 20.807 0 0 0-.146 2.36c0 11.485 9.309 20.794 20.793 20.794 11.483 0 20.793-9.31 20.793-20.793-.008-.437-.03-.873-.065-1.309.498.037.997.056 1.496.057 11.484 0 20.793-9.31 20.793-20.793 0-11.484-9.31-20.793-20.793-20.793-.493.007-.987.032-1.478.074.03-.442.045-.885.047-1.328-.001-11.483-9.31-20.791-20.793-20.79-11.483-.001-20.792 9.307-20.793 20.79.007.79.061 1.578.16 2.361h-28.225v-28.847c.784.093 1.572.142 2.361.146 11.484 0 20.794-9.309 20.793-20.793 0-11.483-9.309-20.793-20.793-20.793-.436.008-.873.03-1.308.065.037-.498.056-.997.057-1.496 0-11.484-9.31-20.793-20.793-20.793zm0 12.884a7.908 7.908 0 1 1 0 15.817 7.908 7.908 0 0 1 0-15.817zm-22.047 22.225a7.908 7.908 0 1 1 0 15.816 7.908 7.908 0 0 1 0-15.816zm44.091 0a7.908 7.908 0 1 1 0 15.816 7.908 7.908 0 0 1 0-15.816zm-90.585 47.133a7.908 7.908 0 1 1 0 15.816 7.908 7.908 0 0 1 0-15.816zm137.082 0a7.908 7.908 0 1 1 0 15.816 7.908 7.908 0 0 1 0-15.816zM223.92 142.3a7.908 7.908 0 1 1 0 15.816 7.908 7.908 0 0 1 0-15.816zm181.531 0a7.908 7.908 0 1 1 0 15.816 7.908 7.908 0 0 1 0-15.816zm-159.306 22.045a7.908 7.908 0 1 1 0 15.816 7.908 7.908 0 0 1 0-15.816zm137.082 0a7.908 7.908 0 1 1 0 15.816 7.908 7.908 0 0 1 0-15.816zm-68.543 104.281a127.941 109.42 0 0 1 .002 0 127.941 109.42 0 0 1 105.15 47.3h40.172v334.528H169.36V315.928H209.39a127.941 109.42 0 0 1 79.199-44.873 127.941 109.42 0 0 1 10.941-1.52 127.941 109.42 0 0 1 2.826-.295 127.941 109.42 0 0 1 10.918-.57 127.941 109.42 0 0 1 1.41-.043z" transform="matrix(.26458 0 0 .26458 5.24 7.03)"/><path style="fill:#fff;fill-opacity:1;stroke:#000;stroke-width:.79399997;stroke-linecap:round;stroke-linejoin:round;stroke-miterlimit:4;stroke-dasharray:none;stroke-opacity:1;paint-order:markers fill stroke" d="M87.91 104.161a7.601 7.601 0 0 0-7.62 7.619v35.208a7.601 7.601 0 0 0 7.62 7.618 7.598 7.598 0 0 0 6.555-3.728l-3.464-2.563h4.41c.012-.071.025-.143.035-.216l-4.445-3.287h4.526v-.156l-4.526-3.348h4.526v-.156l-4.526-3.348h4.526v-.156l-4.526-3.348h4.526v-.156l-4.526-3.348h4.526v-.156l-4.526-3.347h4.526v-.156l-4.526-3.348h4.526v-.156l-4.526-3.348h4.526v-8.505a7.601 7.601 0 0 0-7.618-7.619z"/><path style="fill:#fff;fill-opacity:1;stroke:#000;stroke-width:3;stroke-linecap:round;stroke-linejoin:round;stroke-miterlimit:4;stroke-dasharray:none;stroke-opacity:1;paint-order:markers fill stroke" d="M311.666 533.172a26.467 26.467 0 0 0-26.469 26.469 26.467 26.467 0 0 0 15.285 23.955V632.256c.242 2.77 1.688 5.355 3.532 7.355 1.403 1.523 3.43 2.391 5.361 3.135 1.943.749 4.044 1.065 6.115 1.28 3.057.316 6.208.609 9.22.003 2.99-.6 6.11-1.564 8.436-3.535 2.389-2.023 4.277-4.843 5.004-7.947-.918.093-4.163.295-6.19-.096-2.086-.403-4.263-.994-5.954-2.283-1.227-.935-2.148-2.305-2.742-3.729-.342-.816-.416-2.62-.416-2.62v-40.223a26.467 26.467 0 0 0 15.285-23.955 26.467 26.467 0 0 0-26.467-26.47z" transform="matrix(.26458 0 0 .26458 5.24 7.03)"/><path style="fill:#fff;fill-opacity:1;stroke:#000;stroke-width:.79374999;stroke-linecap:round;stroke-linejoin:round;stroke-miterlimit:4;stroke-dasharray:none;stroke-opacity:1;paint-order:markers fill stroke" d="m78.905 148.317-1.034 1.694 6.623 4.045a3.376 3.376 0 0 0-.169 1.046 3.376 3.376 0 0 0 3.376 3.376 3.376 3.376 0 0 0 2.396-1l7.434 4.54s2.086.96 3.16.798c.906-.135 1.896-.628 2.35-1.423.265-.464.017-1.602.017-1.602s-1.05.88-1.694.998c-.948.173-2.848-.495-2.848-.495l-7.498-4.579a3.376 3.376 0 0 0 .059-.613 3.376 3.376 0 0 0-3.376-3.376 3.376 3.376 0 0 0-2.06.705z"/><circle style="fill:#fff;fill-opacity:1;stroke:#000;stroke-width:.79374999;stroke-linecap:round;stroke-linejoin:round;stroke-miterlimit:4;stroke-dasharray:none;stroke-opacity:1;paint-order:markers fill stroke" cx="87.909" cy="101.382" r="2.37"/><path style="fill:#fff;fill-opacity:1;stroke:#000;stroke-width:.79399997;stroke-linecap:round;stroke-linejoin:round;stroke-miterlimit:4;stroke-dasharray:none;stroke-opacity:1;paint-order:markers fill stroke" d="M87.91 89.077c-7.627 0-13.809 4.502-13.809 10.056v49.184h2.954V99.133c.897-4.12 5.575-7.133 10.854-7.137 5.283 0 9.957 3.013 10.854 7.137v49.184h2.954V99.133c0-5.554-6.182-10.056-13.808-10.056z"/><rect style="fill:#fff;fill-opacity:1;stroke:#000;stroke-width:.79399997;stroke-linecap:round;stroke-linejoin:round;stroke-miterlimit:4;stroke-dasharray:none;stroke-opacity:1;paint-order:markers fill stroke" width="31.92" height="3.374" x="71.949" y="113.044" ry="1.687" rx="1.687"/><rect style="fill:#fff;fill-opacity:1;stroke:#000;stroke-width:.79399997;stroke-linecap:round;stroke-linejoin:round;stroke-miterlimit:4;stroke-dasharray:none;stroke-opacity:1;paint-order:markers fill stroke" width="31.92" height="3.374" x="71.949" y="144.725" ry="1.687" rx="1.687"/><path style="fill:#fff;fill-opacity:1;stroke:#000;stroke-width:.79399997;stroke-linecap:round;stroke-linejoin:round;stroke-miterlimit:4;stroke-dasharray:none;stroke-opacity:1;paint-order:markers fill stroke" d="M82.021 113.237h11.777v2.988H82.021zM87.91 80.85a4.114 4.114 0 0 0-4.114 4.114 4.114 4.114 0 0 0 4.113 4.113 4.114 4.114 0 0 0 4.114-4.113 4.114 4.114 0 0 0-4.114-4.114zm0 1.589a2.525 2.525 0 0 1 2.524 2.525 2.525 2.525 0 0 1-2.525 2.525 2.525 2.525 0 0 1-2.525-2.525 2.525 2.525 0 0 1 2.525-2.525z"/></g></svg>
